svg/business/target_fill.svg

<?xml version="1.0" encoding="UTF-8"?>
<svg width="24px" height="24px" viewBox="0 0 24 24" version="1.1" xmlns="http://www.w3.org/2000/svg" xmlns:xlink="http://www.w3.org/1999/xlink">
    <title>target_fill</title>
    <g id="页面-1" stroke="none" stroke-width="1" fill="none" fill-rule="evenodd">
        <g id="Business" transform="translate(-576.000000, -240.000000)" fill-rule="nonzero">
            <g id="target_fill" transform="translate(576.000000, 240.000000)">
                <path d="M24,0 L24,24 L0,24 L0,0 L24,0 Z M12.5934901,23.257841 L12.5819402,23.2595131 L12.5108777,23.2950439 L12.4918791,23.2987469 L12.4918791,23.2987469 L12.4767152,23.2950439 L12.4056548,23.2595131 C12.3958229,23.2563662 12.3870493,23.2590235 12.3821421,23.2649074 L12.3780323,23.275831 L12.360941,23.7031097 L12.3658947,23.7234994 L12.3769048,23.7357139 L12.4804777,23.8096931 L12.4953491,23.8136134 L12.4953491,23.8136134 L12.5071152,23.8096931 L12.6106902,23.7357139 L12.6232938,23.7196733 L12.6232938,23.7196733 L12.6266527,23.7031097 L12.609561,23.275831 C12.6075724,23.2657013 12.6010112,23.2592993 12.5934901,23.257841 L12.5934901,23.257841 Z M12.8583906,23.1452862 L12.8445485,23.1473072 L12.6598443,23.2396597 L12.6498822,23.2499052 L12.6498822,23.2499052 L12.6471943,23.2611114 L12.6650943,23.6906389 L12.6699349,23.7034178 L12.6699349,23.7034178 L12.678386,23.7104931 L12.8793402,23.8032389 C12.8914285,23.8068999 12.9022333,23.8029875 12.9078286,23.7952264 L12.9118235,23.7811639 L12.8776777,23.1665331 C12.8752882,23.1545897 12.8674102,23.1470016 12.8583906,23.1452862 L12.8583906,23.1452862 Z M12.1430473,23.1473072 C12.1332178,23.1423925 12.1221763,23.1452606 12.1156365,23.1525954 L12.1099173,23.1665331 L12.0757714,23.7811639 C12.0751323,23.7926639 12.0828099,23.8018602 12.0926481,23.8045676 L12.108256,23.8032389 L12.3092106,23.7104931 L12.3186497,23.7024347 L12.3186497,23.7024347 L12.3225043,23.6906389 L12.340401,23.2611114 L12.337245,23.2485176 L12.337245,23.2485176 L12.3277531,23.2396597 L12.1430473,23.1473072 Z" id="MingCute" fill-rule="nonzero"></path>
                <path d="M12,2 C12.8958,2 13.764,2.11778 14.5901,2.33869 L12.4643,4.46447 C12.3013,4.62754 12.1589,4.80745 12.039,5.00011 L12,5 C8.13401,5 5,8.13401 5,12 C5,15.866 8.13401,19 12,19 C15.866,19 19,15.866 19,12 L18.9999,11.9608 C19.1925,11.8409 19.3724,11.6986 19.5354,11.5355 L21.6613,9.40969 C21.8822,10.2358 22,11.1042 22,12 C22,17.5228 17.5228,22 12,22 C6.47715,22 2,17.5228 2,12 C2,6.47715 6.47715,2 12,2 Z M11.5857,7.01692 C11.5857,7.86845 11.5436,8.7307 11.5902,9.58107 L11.0501,10.1212 C10.269,10.9023 10.269,12.1686 11.0501,12.9497 C11.8311,13.7307 13.0974,13.7307 13.8785,12.9497 L14.4185,12.4096 C15.269,12.4564 16.1314,12.4142 16.9831,12.4142 C16.7725,14.9819 14.6219,17 12,17 C9.23858,17 7,14.7614 7,12 C7,9.3781 9.01808,7.22755 11.5857,7.01692 Z M18.5039,2.1262 C18.8776,2.28098 19.1212,2.64562 19.1212,3.05008 L19.1212,4.8785 L20.9496,4.8785 C21.3541,4.8785 21.7187,5.12215 21.8735,5.49582 C22.0283,5.8695 21.9427,6.29961 21.6567,6.58561 L18.1212,10.1211 C17.9337,10.3087 17.6793,10.414 17.4141,10.414 L14.9999,10.414 L13.1715,12.2425 C12.7809,12.633 12.1478,12.633 11.7572,12.2425 C11.3667,11.8519 11.3667,11.2188 11.7572,10.8282 L13.5857,8.99983 L13.5857,6.58561 C13.5857,6.32039 13.691,6.06604 13.8786,5.8785 L17.4141,2.34297 C17.7001,2.05697 18.1302,1.97142 18.5039,2.1262 Z" id="形状" fill="#09244B"></path>
            </g>
        </g>
    </g>
</svg>

<svg xmlns="http://www.w3.org/2000/svg" width="24" height="24"><g fill="none" fill-rule="nonzero"><path d="M24 0v24H0V0zM12.593 23.258l-.011.002-.071.035-.02.004-.014-.004-.071-.035c-.01-.004-.019-.001-.024.005l-.004.01-.017.428.005.02.01.013.104.074.015.004.012-.004.104-.074.012-.016.004-.017-.017-.427c-.002-.01-.009-.017-.017-.018m.265-.113-.013.002-.185.093-.01.01-.003.011.018.43.005.012.008.007.201.093c.012.004.023 0 .029-.008l.004-.014-.034-.614c-.003-.012-.01-.02-.02-.022m-.715.002a.023.023 0 0 0-.027.006l-.006.014-.034.614c0 .012.007.02.017.024l.015-.002.201-.093.01-.008.004-.011.017-.43-.003-.012-.01-.01z"/><path fill="#09244B" d="M12 2c.896 0 1.764.118 2.59.339l-2.126 2.125A3 3 0 0 0 12.04 5H12a7 7 0 1 0 7 7v-.04c.192-.12.372-.261.535-.425l2.126-2.125c.221.826.339 1.694.339 2.59 0 5.523-4.477 10-10 10S2 17.523 2 12 6.477 2 12 2m-.414 5.017c0 .851-.042 1.714.004 2.564l-.54.54a2 2 0 1 0 2.829 2.829l.54-.54c.85.046 1.712.004 2.564.004a5 5 0 1 1-5.397-5.397m6.918-4.89a1 1 0 0 1 .617.923V4.88h1.829a1 1 0 0 1 .707 1.707L18.12 10.12a1 1 0 0 1-.707.293H15l-1.828 1.829a1 1 0 0 1-1.415-1.415L13.586 9V6.586a1 1 0 0 1 .293-.708l3.535-3.535a1 1 0 0 1 1.09-.217"/></g></svg>
